src/assets/outline/Html5.svg

<svg width="24" height="24" viewBox="0 0 24 24"  xmlns="http://www.w3.org/2000/svg">
<path d="M12 22.71C11.84 22.71 11.68 22.69 11.52 22.64L5.44 20.9C4.75 20.7 4.25999 20.12 4.17999 19.41L2.38 3.19C2.33 2.7 2.48 2.2 2.82 1.83C3.15 1.46 3.62999 1.25 4.11999 1.25H19.89C20.39 1.25 20.86 1.46 21.19 1.83C21.52 2.2 21.68 2.7 21.63 3.19L19.83 19.41C19.75 20.12 19.26 20.7 18.57 20.9L12.49 22.64C12.32 22.69 12.16 22.71 12 22.71ZM4.11999 2.75C4.01999 2.75 3.95999 2.8 3.92999 2.83C3.89999 2.86 3.85999 2.93 3.86999 3.02L5.66998 19.24C5.67998 19.34 5.74997 19.43 5.84997 19.45L11.93 21.19C11.97 21.2 12.02 21.2 12.07 21.19L18.15 19.45C18.25 19.42 18.32 19.34 18.33 19.24L20.13 3.02C20.14 2.92 20.09 2.86 20.07 2.83C20.04 2.8 19.98 2.75 19.88 2.75H4.11999Z" />
<path d="M11.7498 18C11.6798 18 11.6098 17.99 11.5398 17.97L8.0398 16.97C7.7198 16.88 7.49982 16.58 7.49982 16.25V14.25C7.49982 13.84 7.83982 13.5 8.24982 13.5C8.65982 13.5 8.99982 13.84 8.99982 14.25V15.68L11.7498 16.47L14.5498 15.67L14.9198 12H8.24982C7.86982 12 7.54982 11.71 7.49982 11.33L6.99982 6.83C6.97982 6.62 7.03983 6.41 7.18983 6.25C7.32983 6.09 7.53982 6 7.74982 6H16.2498C16.6598 6 16.9998 6.34 16.9998 6.75C16.9998 7.16 16.6598 7.5 16.2498 7.5H8.58985L8.91981 10.5H15.7498C15.9598 10.5 16.1598 10.59 16.3098 10.75C16.4498 10.91 16.5198 11.12 16.4998 11.33L15.9998 16.33C15.9698 16.64 15.7598 16.89 15.4598 16.98L11.9598 17.98C11.8898 17.99 11.8198 18 11.7498 18Z" />
</svg>

<?xml version="1.0" encoding="UTF-8"?>
<svg width="24" height="24" viewBox="0 0 24 24" xmlns="http://www.w3.org/2000/svg">
 <path d="m12 22.71c-0.16 0-0.32-0.02-0.48-0.07l-6.08-1.74c-0.69-0.2-1.18-0.78-1.26-1.49l-1.8-16.22c-0.05-0.49 0.1-0.99 0.44-1.36 0.33-0.37 0.80999-0.58 1.3-0.58h15.77c0.5 0 0.97 0.21 1.3 0.58s0.49 0.87 0.44 1.36l-1.8 16.22c-0.08 0.71-0.57 1.29-1.26 1.49l-6.08 1.74c-0.17 0.05-0.33 0.07-0.49 0.07zm-7.88-19.96c-0.1 0-0.16 0.05-0.19 0.08s-0.07 0.1-0.06 0.19l1.8 16.22c0.01 0.1 0.07999 0.19 0.17999 0.21l6.08 1.74c0.04 0.01 0.09 0.01 0.14 0l6.08-1.74c0.1-0.03 0.17-0.11 0.18-0.21l1.8-16.22c0.01-0.1-0.04-0.16-0.06-0.19-0.03-0.03-0.09-0.08-0.19-0.08h-15.76z"/>
 <path d="m11.75 18c-0.07 0-0.14-0.01-0.21-0.03l-3.5-1c-0.32-0.09-0.53998-0.39-0.53998-0.72v-2c0-0.41 0.34-0.75 0.75-0.75s0.75 0.34 0.75 0.75v1.43l2.75 0.79 2.8-0.8 0.37-3.67h-6.67c-0.38 0-0.7-0.29-0.75-0.67l-0.5-4.5c-0.02-0.21 0.04001-0.42 0.19001-0.58 0.14-0.16 0.34999-0.25 0.55999-0.25h8.5c0.41 0 0.75 0.34 0.75 0.75s-0.34 0.75-0.75 0.75h-7.66l0.32996 3h6.83c0.21 0 0.41 0.09 0.56 0.25 0.14 0.16 0.21 0.37 0.19 0.58l-0.5 5c-0.03 0.31-0.24 0.56-0.54 0.65l-3.5 1c-0.07 0.01-0.14 0.02-0.21 0.02z"/>
</svg>
